X: 2
T: The Burnt Old Man
R: jig
M: 6/8
L: 1/8
K: Dmaj
DFA BAF|DFE F2E|DEF ABA|DFD E2F|DFA B2A|AFA d2e|fed BdA|1 BAF E2F:|2 BAF E2B|||:ABc ded|DFA B2A|AB/c/d efg|fed B2A|AFA Bdd|DFA deg|fed BdA|1 BAF E2B:|2 BAF E2F||


Tune 1029	Setting 29508

